X:58
T:Round the World for Sport
C:"Irish"
S:Petrie's Third Collection of Strathspey Reels and Country Dances &c.
Z:Steve Wyrick , 7/31/05
N:Petrie's Third Collection, page 23
L:1/8
M:6/8
R:Jig
K:Em
E/F/|G2G GFG|A2A AGA|BcB BAG|B2E E2F|G2G GFG|A2A AGA|BcB BAG|F2D D2::f|
g2e e2f|g2e e2f|g2e a2g|f2d d2f|gfe agf|gfe dcB|ABc BAB|G2E E2|]
